app/src/assets/icons/alpha-sort.svg

<svg width="14" height="14" viewBox="0 0 14 14" fill="none" xmlns="http://www.w3.org/2000/svg">
<path d="M5.50003 10.0003H3.99999V0.500013C3.99999 0.367402 3.94731 0.240221 3.85354 0.146451C3.75977 0.0526798 3.63259 2.61449e-09 3.49998 2.61449e-09H2.49995C2.36734 2.61449e-09 2.24016 0.0526798 2.14639 0.146451C2.05262 0.240221 1.99994 0.367402 1.99994 0.500013V10.0003H0.499899C0.0564493 10.0003 -0.167619 10.539 0.147077 10.8537L2.64714 13.8538C2.74091 13.9475 2.86804 14.0001 3.00059 14.0001C3.13315 14.0001 3.26028 13.9475 3.35404 13.8538L5.8541 10.8537C6.16724 10.5397 5.94442 10.0003 5.50003 10.0003ZM13.0002 8.00021H9.00013C8.86752 8.00021 8.74033 8.05289 8.64656 8.14666C8.55279 8.24044 8.50011 8.36762 8.50011 8.50023V9.50025C8.50011 9.63287 8.55279 9.76005 8.64656 9.85382C8.74033 9.94759 8.86752 10.0003 9.00013 10.0003H10.7502L8.83575 12.2019C8.73019 12.2957 8.6457 12.4109 8.58785 12.5397C8.53 12.6685 8.5001 12.8082 8.50011 12.9494V13.5004C8.50011 13.633 8.55279 13.7602 8.64656 13.8539C8.74033 13.9477 8.86752 14.0004 9.00013 14.0004H13.0002C13.1328 14.0004 13.26 13.9477 13.3538 13.8539C13.4476 13.7602 13.5002 13.633 13.5002 13.5004V12.5003C13.5002 12.3677 13.4476 12.2405 13.3538 12.1468C13.26 12.053 13.1328 12.0003 13.0002 12.0003H11.2502L13.1646 9.7987C13.2702 9.70487 13.3547 9.58974 13.4125 9.4609C13.4704 9.33205 13.5003 9.19242 13.5002 9.05118V8.50023C13.5002 8.36762 13.4476 8.24044 13.3538 8.14666C13.26 8.05289 13.1328 8.00021 13.0002 8.00021ZM13.9709 5.33202L12.1186 0.331884C12.084 0.234745 12.0201 0.150709 11.9358 0.0912932C11.8515 0.0318773 11.7508 -1.05424e-05 11.6477 2.61449e-09H10.3527C10.2495 -1.05424e-05 10.1489 0.0318773 10.0646 0.0912932C9.98027 0.150709 9.9164 0.234745 9.88171 0.331884L8.02948 5.33202C8.00254 5.40745 7.99413 5.48826 8.00494 5.56763C8.01575 5.647 8.04547 5.72261 8.09159 5.78809C8.13772 5.85358 8.19891 5.90702 8.27 5.94393C8.34109 5.98083 8.42001 6.00012 8.50011 6.00016H9.27607C9.38183 6.0002 9.48487 5.9667 9.57039 5.90448C9.65591 5.84226 9.7195 5.75453 9.75202 5.6539L9.89015 5.25014H12.109L12.2468 5.6539C12.2794 5.75474 12.3431 5.84261 12.4289 5.90485C12.5147 5.96708 12.618 6.00046 12.724 6.00016H13.5002C13.5803 6.00012 13.6593 5.98083 13.7304 5.94393C13.8015 5.90702 13.8626 5.85358 13.9088 5.78809C13.9549 5.72261 13.9846 5.647 13.9954 5.56763C14.0062 5.48826 13.9978 5.40745 13.9709 5.33202ZM10.488 3.50009L11.0002 2.00005L11.5124 3.50009H10.488Z" fill="#58676D"/>
</svg>

<svg viewBox="0 0 14 14" fill="none" width="32" height="32" xmlns="http://www.w3.org/2000/svg" xmlns:xlink="http://www.w3.org/1999/xlink">
    <style>
        :root, .palette0 {color: currentColor;
            --color0: #001a25;
            --color1: #636970;
        }
    </style>
    <path fill="var(--color1, #636970)" d="M5.5 10.0003H4L4 0.5c0-0.1326-0.0527-0.2598-0.1465-0.3535C3.7598 0.0527 3.6326 0 3.5 0l-1 0C2.3673 0 2.2402 0.0527 2.1464 0.1465 2.0526 0.2402 1.9999 0.3674 1.9999 0.5l0 9.5003h-1.5c-0.4435 0-0.6675 0.5387-0.3528 0.8534l2.5 3.0001c0.0938 0.0937 0.2209 0.1463 0.3535 0.1463s0.2597-0.0526 0.3534-0.1463l2.5001-3.0001c0.3131-0.314 0.0903-0.8534-0.3541-0.8534zM13.0002 8.0002l-4.0001 0c-0.1326 0-0.2598 0.0527-0.3535 0.1465-0.0938 0.0937-0.1465 0.2209-0.1465 0.3535l0 1c0 0.1327 0.0527 0.2599 0.1465 0.3536 0.0937 0.0938 0.2209 0.1465 0.3535 0.1465h1.7501l-1.9145 2.2016c-0.1055 0.0938-0.19 0.209-0.2479 0.3378-0.0578 0.1288-0.0877 0.2685-0.0877 0.4097l0 0.551c0 0.1326 0.0527 0.2598 0.1465 0.3535 0.0937 0.0938 0.2209 0.1465 0.3535 0.1465h4.0001c0.1326 0 0.2598-0.0527 0.3536-0.1465 0.0938-0.0937 0.1464-0.2209 0.1464-0.3535v-1.0001c0-0.1326-0.0526-0.2598-0.1464-0.3535-0.0938-0.0938-0.221-0.1465-0.3536-0.1465h-1.75l1.9144-2.2016c0.1056-0.0938 0.1901-0.209 0.2479-0.3378 0.0579-0.1288 0.0878-0.2685 0.0877-0.4097v-0.551c0-0.1326-0.0526-0.2598-0.1464-0.3535-0.0938-0.0938-0.221-0.1465-0.3536-0.1465zM13.9709 5.332 12.1186 0.3319c-0.0346-0.0972-0.0985-0.1812-0.1828-0.2406C11.8515 0.0319 11.7508 0 11.6477 0l-1.295 0c-0.1032 0-0.2038 0.0319-0.2881 0.0913-0.0843 0.0594-0.1482 0.1434-0.1829 0.2406L8.0295 5.332c-0.027 0.0755-0.0354 0.1563-0.0246 0.2356 0.0108 0.0794 0.0406 0.155 0.0867 0.2205C8.1377 5.8536 8.1989 5.907 8.27 5.9439 8.3411 5.9808 8.42 6.0001 8.5001 6.0002l0.776 0c0.1057 0 0.2088-0.0335 0.2943-0.0957 0.0855-0.0622 0.1491-0.15 0.1816-0.2506l0.1382-0.4038 2.2188 0 0.1378 0.4038c0.0326 0.1008 0.0963 0.1887 0.1821 0.2509 0.0858 0.0623 0.1891 0.0957 0.2951 0.0954l0.7762 0c0.0801-1e-4 0.1591-0.0194 0.2302-0.0563 0.0711-0.0369 0.1322-0.0903 0.1784-0.1558 0.0461-0.0655 0.0758-0.1411 0.0866-0.2205 0.0108-0.0793 24e-4-0.1601-0.0245-0.2356zM10.488 3.5001l0.5122-1.5001 0.5122 1.5001z" />
</svg>
